public/algorithms/searching-algorithms/binary-search/calculating-middle.svg

<svg width="425" height="94" viewBox="0 0 425 94" fill="none" xmlns="http://www.w3.org/2000/svg">
<path d="M15.2557 34.7273H18.6193L26.5284 54.0455H26.8011L34.7102 34.7273H38.0739V58H35.4375V40.3182H35.2102L27.9375 58H25.392L18.1193 40.3182H17.892V58H15.2557V34.7273ZM43.3608 58V40.5455H46.0426V58H43.3608ZM44.7244 37.6364C44.2017 37.6364 43.7509 37.4583 43.3722 37.1023C43.0009 36.7462 42.8153 36.3182 42.8153 35.8182C42.8153 35.3182 43.0009 34.8902 43.3722 34.5341C43.7509 34.178 44.2017 34 44.7244 34C45.2472 34 45.6941 34.178 46.0653 34.5341C46.4441 34.8902 46.6335 35.3182 46.6335 35.8182C46.6335 36.3182 46.4441 36.7462 46.0653 37.1023C45.6941 37.4583 45.2472 37.6364 44.7244 37.6364ZM57.5455 58.3636C56.0909 58.3636 54.8068 57.9962 53.6932 57.2614C52.5795 56.5189 51.7083 55.4735 51.0795 54.125C50.4508 52.7689 50.1364 51.1667 50.1364 49.3182C50.1364 47.4848 50.4508 45.8939 51.0795 44.5455C51.7083 43.197 52.5833 42.1553 53.7045 41.4205C54.8258 40.6856 56.1212 40.3182 57.5909 40.3182C58.7273 40.3182 59.625 40.5076 60.2841 40.8864C60.9508 41.2576 61.4583 41.6818 61.8068 42.1591C62.1629 42.6288 62.4394 43.0152 62.6364 43.3182H62.8636V34.7273H65.5455V58H62.9545V55.3182H62.6364C62.4394 55.6364 62.1591 56.0379 61.7955 56.5227C61.4318 57 60.9129 57.428 60.2386 57.8068C59.5644 58.178 58.6667 58.3636 57.5455 58.3636ZM57.9091 55.9545C58.9848 55.9545 59.8939 55.6742 60.6364 55.1136C61.3788 54.5455 61.9432 53.7614 62.3295 52.7614C62.7159 51.7538 62.9091 50.5909 62.9091 49.2727C62.9091 47.9697 62.7197 46.8295 62.3409 45.8523C61.9621 44.8674 61.4015 44.1023 60.6591 43.5568C59.9167 43.0038 59 42.7273 57.9091 42.7273C56.7727 42.7273 55.8258 43.0189 55.0682 43.6023C54.3182 44.178 53.7538 44.9621 53.375 45.9545C53.0038 46.9394 52.8182 48.0455 52.8182 49.2727C52.8182 50.5152 53.0076 51.6439 53.3864 52.6591C53.7727 53.6667 54.3409 54.4697 55.0909 55.0682C55.8485 55.6591 56.7879 55.9545 57.9091 55.9545ZM77.4205 58.3636C75.9659 58.3636 74.6818 57.9962 73.5682 57.2614C72.4545 56.5189 71.5833 55.4735 70.9545 54.125C70.3258 52.7689 70.0114 51.1667 70.0114 49.3182C70.0114 47.4848 70.3258 45.8939 70.9545 44.5455C71.5833 43.197 72.4583 42.1553 73.5795 41.4205C74.7008 40.6856 75.9962 40.3182 77.4659 40.3182C78.6023 40.3182 79.5 40.5076 80.1591 40.8864C80.8258 41.2576 81.3333 41.6818 81.6818 42.1591C82.0379 42.6288 82.3144 43.0152 82.5114 43.3182H82.7386V34.7273H85.4205V58H82.8295V55.3182H82.5114C82.3144 55.6364 82.0341 56.0379 81.6705 56.5227C81.3068 57 80.7879 57.428 80.1136 57.8068C79.4394 58.178 78.5417 58.3636 77.4205 58.3636ZM77.7841 55.9545C78.8598 55.9545 79.7689 55.6742 80.5114 55.1136C81.2538 54.5455 81.8182 53.7614 82.2045 52.7614C82.5909 51.7538 82.7841 50.5909 82.7841 49.2727C82.7841 47.9697 82.5947 46.8295 82.2159 45.8523C81.8371 44.8674 81.2765 44.1023 80.5341 43.5568C79.7917 43.0038 78.875 42.7273 77.7841 42.7273C76.6477 42.7273 75.7008 43.0189 74.9432 43.6023C74.1932 44.178 73.6288 44.9621 73.25 45.9545C72.8788 46.9394 72.6932 48.0455 72.6932 49.2727C72.6932 50.5152 72.8826 51.6439 73.2614 52.6591C73.6477 53.6667 74.2159 54.4697 74.9659 55.0682C75.7235 55.6591 76.6629 55.9545 77.7841 55.9545ZM93.3864 34.7273V58H90.7045V34.7273H93.3864ZM105.616 58.3636C103.935 58.3636 102.484 57.9924 101.264 57.25C100.052 56.5 99.1165 55.4545 98.4574 54.1136C97.8059 52.7652 97.4801 51.197 97.4801 49.4091C97.4801 47.6212 97.8059 46.0455 98.4574 44.6818C99.1165 43.3106 100.033 42.2424 101.207 41.4773C102.389 40.7045 103.768 40.3182 105.344 40.3182C106.253 40.3182 107.151 40.4697 108.037 40.7727C108.923 41.0758 109.73 41.5682 110.457 42.25C111.185 42.9242 111.764 43.8182 112.196 44.9318C112.628 46.0455 112.844 47.4167 112.844 49.0455V50.1818H99.3892V47.8636H110.116C110.116 46.8788 109.92 46 109.526 45.2273C109.139 44.4545 108.586 43.8447 107.866 43.3977C107.154 42.9508 106.313 42.7273 105.344 42.7273C104.276 42.7273 103.351 42.9924 102.571 43.5227C101.798 44.0455 101.204 44.7273 100.787 45.5682C100.37 46.4091 100.162 47.3106 100.162 48.2727V49.8182C100.162 51.1364 100.389 52.2538 100.844 53.1705C101.306 54.0795 101.946 54.7727 102.764 55.25C103.582 55.7197 104.533 55.9545 105.616 55.9545C106.321 55.9545 106.957 55.8561 107.526 55.6591C108.101 55.4545 108.598 55.1515 109.014 54.75C109.431 54.3409 109.753 53.8333 109.98 53.2273L112.571 53.9545C112.298 54.8333 111.84 55.6061 111.196 56.2727C110.552 56.9318 109.757 57.447 108.81 57.8182C107.863 58.1818 106.798 58.3636 105.616 58.3636ZM127.014 46.7727V44.3182H141.014V46.7727H127.014ZM127.014 53.5V51.0455H141.014V53.5H127.014Z" fill="white"/>
<path d="M227.26 31.3182C225.927 31.3182 224.726 31.053 223.658 30.5227C222.589 29.9924 221.733 29.2652 221.089 28.3409C220.446 27.4167 220.093 26.3636 220.033 25.1818H222.76C222.866 26.2348 223.343 27.1061 224.192 27.7955C225.048 28.4773 226.071 28.8182 227.26 28.8182C228.214 28.8182 229.063 28.5947 229.805 28.1477C230.555 27.7008 231.143 27.0871 231.567 26.3068C231.999 25.5189 232.214 24.6288 232.214 23.6364C232.214 22.6212 231.991 21.7159 231.544 20.9205C231.105 20.1174 230.499 19.4848 229.726 19.0227C228.953 18.5606 228.071 18.3258 227.078 18.3182C226.366 18.3106 225.635 18.4205 224.885 18.6477C224.135 18.8674 223.518 19.1515 223.033 19.5L220.396 19.1818L221.805 7.72727H233.896V10.2273H224.169L223.351 17.0909H223.487C223.964 16.7121 224.563 16.3977 225.283 16.1477C226.002 15.8977 226.752 15.7727 227.533 15.7727C228.957 15.7727 230.226 16.1136 231.339 16.7955C232.461 17.4697 233.339 18.3939 233.976 19.5682C234.62 20.7424 234.942 22.0833 234.942 23.5909C234.942 25.0758 234.608 26.4015 233.942 27.5682C233.283 28.7273 232.374 29.6439 231.214 30.3182C230.055 30.9848 228.737 31.3182 227.26 31.3182ZM255.32 26.9091V11.9091H257.865V26.9091H255.32ZM249.092 20.6818V18.1364H264.092V20.6818H249.092ZM279.277 31L289.686 10.4091V10.2273H277.686V7.72727H292.595V10.3636L282.232 31H279.277Z" fill="white"/>
<path d="M248.722 86V83.9545L256.403 75.5455C257.305 74.5606 258.047 73.7045 258.631 72.9773C259.214 72.2424 259.646 71.553 259.926 70.9091C260.214 70.2576 260.358 69.5758 260.358 68.8636C260.358 68.0455 260.161 67.3371 259.767 66.7386C259.381 66.1402 258.85 65.678 258.176 65.3523C257.502 65.0265 256.744 64.8636 255.903 64.8636C255.009 64.8636 254.229 65.0492 253.562 65.4205C252.903 65.7841 252.392 66.2955 252.028 66.9545C251.672 67.6136 251.494 68.3864 251.494 69.2727H248.812C248.812 67.9091 249.127 66.7121 249.756 65.6818C250.384 64.6515 251.241 63.8485 252.324 63.2727C253.415 62.697 254.638 62.4091 255.994 62.4091C257.358 62.4091 258.566 62.697 259.619 63.2727C260.672 63.8485 261.498 64.625 262.097 65.6023C262.695 66.5795 262.994 67.6667 262.994 68.8636C262.994 69.7197 262.839 70.5568 262.528 71.375C262.225 72.1856 261.695 73.0909 260.938 74.0909C260.188 75.0833 259.146 76.2955 257.812 77.7273L252.585 83.3182V83.5H263.403V86H248.722Z" fill="white"/>
<line x1="166" y1="46.5" x2="346" y2="46.5" stroke="white"/>
<path d="M369.014 45.2273V42.7727H383.014V45.2273H369.014ZM369.014 51.9545V49.5H383.014V51.9545H369.014ZM414.699 59.3182C413.744 59.303 412.79 59.1212 411.835 58.7727C410.881 58.4242 410.009 57.8371 409.222 57.0114C408.434 56.178 407.801 55.053 407.324 53.6364C406.847 52.2121 406.608 50.4242 406.608 48.2727C406.608 46.2121 406.801 44.3864 407.188 42.7955C407.574 41.197 408.134 39.8523 408.869 38.7614C409.604 37.6629 410.491 36.8295 411.528 36.2614C412.574 35.6932 413.752 35.4091 415.062 35.4091C416.366 35.4091 417.525 35.6705 418.54 36.1932C419.563 36.7083 420.396 37.428 421.04 38.3523C421.684 39.2765 422.1 40.3409 422.29 41.5455H419.517C419.259 40.5 418.759 39.6326 418.017 38.9432C417.275 38.2538 416.29 37.9091 415.062 37.9091C413.259 37.9091 411.839 38.6932 410.801 40.2614C409.771 41.8295 409.252 44.0303 409.244 46.8636H409.426C409.85 46.2197 410.354 45.6705 410.938 45.2159C411.528 44.7538 412.18 44.3977 412.892 44.1477C413.604 43.8977 414.358 43.7727 415.153 43.7727C416.487 43.7727 417.706 44.1061 418.812 44.7727C419.919 45.4318 420.805 46.3447 421.472 47.5114C422.138 48.6705 422.472 50 422.472 51.5C422.472 52.9394 422.15 54.2576 421.506 55.4545C420.862 56.6439 419.956 57.5909 418.79 58.2955C417.631 58.9924 416.267 59.3333 414.699 59.3182ZM414.699 56.8182C415.653 56.8182 416.509 56.5795 417.267 56.1023C418.032 55.625 418.634 54.9848 419.074 54.1818C419.521 53.3788 419.744 52.4848 419.744 51.5C419.744 50.5379 419.528 49.6629 419.097 48.875C418.672 48.0795 418.085 47.447 417.335 46.9773C416.593 46.5076 415.744 46.2727 414.79 46.2727C414.07 46.2727 413.4 46.4167 412.778 46.7045C412.157 46.9848 411.612 47.3712 411.142 47.8636C410.68 48.3561 410.316 48.9205 410.051 49.5568C409.786 50.1856 409.653 50.8485 409.653 51.5455C409.653 52.4697 409.869 53.3333 410.301 54.1364C410.741 54.9394 411.339 55.5871 412.097 56.0795C412.862 56.572 413.729 56.8182 414.699 56.8182Z" fill="white"/>
</svg>

<svg xmlns="http://www.w3.org/2000/svg" width="425" height="94" fill="none" viewBox="0 0 425 94"><path fill="#fff" d="M15.256 34.727h3.363l7.91 19.319h.272l7.91-19.319h3.363V58h-2.636V40.318h-.228L27.937 58h-2.545l-7.273-17.682h-.227V58h-2.636zM43.36 58V40.545h2.682V58zm1.363-20.364q-.783 0-1.352-.534a1.72 1.72 0 0 1-.557-1.284q0-.75.557-1.284.569-.534 1.352-.534.785 0 1.341.534.57.534.569 1.284 0 .75-.569 1.284a1.87 1.87 0 0 1-1.34.534m12.822 20.728q-2.183 0-3.853-1.103-1.67-1.113-2.613-3.136-.945-2.034-.944-4.807 0-2.75.944-4.773.942-2.022 2.625-3.125 1.68-1.102 3.886-1.102 1.704 0 2.693.568 1 .558 1.523 1.273.533.705.83 1.16h.227v-8.592h2.682V58h-2.592v-2.682h-.318q-.296.477-.84 1.205-.546.715-1.557 1.284-1.012.557-2.693.557m.363-2.41q1.614 0 2.727-.84 1.114-.853 1.694-2.353.58-1.51.58-3.488 0-1.954-.57-3.42-.568-1.478-1.68-2.296-1.115-.83-2.75-.83-1.705 0-2.842.875-1.125.864-1.693 2.353-.557 1.476-.557 3.318 0 1.862.568 3.386.58 1.511 1.705 2.41 1.137.886 2.818.886m19.512 2.41q-2.183 0-3.853-1.103-1.67-1.113-2.614-3.136-.943-2.034-.943-4.807 0-2.75.944-4.773.942-2.022 2.624-3.125 1.683-1.102 3.887-1.102 1.704 0 2.693.568 1 .558 1.523 1.273.533.705.83 1.16h.227v-8.592h2.682V58h-2.592v-2.682h-.318q-.296.477-.84 1.205-.546.715-1.557 1.284-1.012.557-2.693.557m.363-2.41q1.614 0 2.727-.84 1.114-.853 1.694-2.353.58-1.51.58-3.488 0-1.954-.57-3.42-.568-1.478-1.68-2.296-1.115-.83-2.75-.83-1.705 0-2.842.875-1.125.864-1.693 2.353-.557 1.476-.557 3.318 0 1.862.568 3.386.58 1.511 1.705 2.41 1.137.886 2.818.886m15.602-21.227V58h-2.681V34.727zm12.23 23.637q-2.522 0-4.352-1.114-1.818-1.125-2.807-3.136-.977-2.023-.977-4.705t.977-4.727q.99-2.057 2.75-3.205 1.773-1.158 4.137-1.159 1.364 0 2.693.455a6.7 6.7 0 0 1 2.42 1.477q1.091 1.011 1.739 2.682.648 1.67.648 4.113v1.137H99.389v-2.318h10.727q0-1.477-.59-2.637a4.46 4.46 0 0 0-1.66-1.83q-1.068-.67-2.522-.67-1.602 0-2.773.796a5.23 5.23 0 0 0-1.784 2.045 6 6 0 0 0-.625 2.705v1.545q0 1.977.682 3.352.693 1.365 1.92 2.08 1.227.705 2.852.705 1.057 0 1.91-.296a4.1 4.1 0 0 0 1.488-.909q.626-.614.966-1.523l2.591.728a5.75 5.75 0 0 1-1.375 2.318q-.966.989-2.386 1.545-1.42.546-3.194.546m21.398-11.591v-2.455h14v2.455zm0 6.727v-2.455h14V53.5zM227.26 31.318q-2 0-3.602-.795-1.603-.796-2.569-2.182-.965-1.386-1.056-3.16h2.727q.159 1.58 1.432 2.614 1.284 1.023 3.068 1.023 1.432 0 2.545-.67a4.73 4.73 0 0 0 1.762-1.841q.647-1.182.647-2.67 0-1.524-.67-2.716a4.9 4.9 0 0 0-1.818-1.898q-1.159-.693-2.648-.705a7.3 7.3 0 0 0-2.193.33q-1.125.33-1.852.852l-2.637-.318 1.409-11.455h12.091v2.5h-9.727l-.818 6.864h.136q.716-.568 1.796-.943a6.8 6.8 0 0 1 2.25-.375q2.136 0 3.806 1.023 1.682 1.011 2.637 2.772.966 1.761.966 4.023 0 2.227-1 3.977a7.3 7.3 0 0 1-2.728 2.75q-1.738 1-3.954 1m28.06-4.409v-15h2.545v15zm-6.228-6.227v-2.546h15v2.546zM279.277 31l10.409-20.59v-.183h-12v-2.5h14.909v2.637L282.232 31zM248.722 86v-2.046l7.681-8.408a54 54 0 0 0 2.228-2.569q.875-1.102 1.295-2.068a5 5 0 0 0 .432-2.045q0-1.228-.591-2.125a3.83 3.83 0 0 0-1.591-1.387q-1.011-.489-2.273-.488-1.34 0-2.341.556a3.84 3.84 0 0 0-1.534 1.534q-.534.99-.534 2.319h-2.682q0-2.045.944-3.591a6.55 6.55 0 0 1 2.568-2.41q1.636-.863 3.67-.863 2.046 0 3.625.864 1.58.863 2.478 2.33.897 1.466.897 3.26 0 1.285-.466 2.512-.455 1.215-1.59 2.716-1.125 1.489-3.126 3.636l-5.227 5.591v.182h10.818V86z"/><path stroke="#fff" d="M166 46.5h180"/><path fill="#fff" d="M369.014 45.227v-2.454h14v2.454zm0 6.728V49.5h14v2.455zm45.685 7.363a8.7 8.7 0 0 1-2.864-.545q-1.432-.523-2.613-1.762-1.182-1.25-1.898-3.375-.716-2.136-.716-5.363 0-3.09.58-5.478.579-2.397 1.681-4.034 1.103-1.647 2.659-2.5 1.569-.852 3.534-.852 1.956 0 3.478.784a6.6 6.6 0 0 1 2.5 2.16q.966 1.385 1.25 3.192h-2.773q-.387-1.567-1.5-2.602t-2.955-1.034q-2.704 0-4.261 2.352-1.545 2.354-1.557 6.603h.182a6.83 6.83 0 0 1 3.466-2.716 6.8 6.8 0 0 1 2.261-.375q2 0 3.659 1 1.66.989 2.66 2.738 1 1.74 1 3.989 0 2.16-.966 3.955a7.36 7.36 0 0 1-2.716 2.84q-1.739 1.045-4.091 1.023m0-2.5q1.431 0 2.568-.716a5.1 5.1 0 0 0 1.807-1.92q.67-1.205.67-2.682 0-1.443-.647-2.625a4.95 4.95 0 0 0-1.762-1.898q-1.113-.704-2.545-.704-1.08 0-2.012.431a5.2 5.2 0 0 0-1.636 1.16 5.6 5.6 0 0 0-1.091 1.693 5.1 5.1 0 0 0-.398 1.988q0 1.387.648 2.591a5.34 5.34 0 0 0 1.796 1.944q1.147.738 2.602.738"/></svg>
